hosted/assets/icon/widgets/dark-mode/export-to-file.svg

<svg width="50" height="50" viewBox="0 0 50 50" fill="none" xmlns="http://www.w3.org/2000/svg">
<path fill-rule="evenodd" clip-rule="evenodd" d="M9.8499 2.84999V47.15H40.1499V15.6591L27.2782 2.84999H9.8499ZM8.1499 2.09999C8.1499 1.57532 8.57524 1.14999 9.0999 1.14999H27.5878C27.839 1.14999 28.0799 1.24945 28.2579 1.42661L41.57 14.674C41.7492 14.8523 41.8499 15.0946 41.8499 15.3473V47.9C41.8499 48.4247 41.4246 48.85 40.8999 48.85H9.0999C8.57524 48.85 8.1499 48.4247 8.1499 47.9V2.09999Z" fill="white"/>
<path fill-rule="evenodd" clip-rule="evenodd" d="M27.8499 14.15V2H26.1499V14.9C26.1499 15.4247 26.5752 15.85 27.0999 15.85H40.9999V14.15H27.8499Z" fill="white"/>
<path d="M17 38C17 37.4477 17.4477 37 18 37H32C32.5523 37 33 37.4477 33 38V40C33 40.5523 32.5523 41 32 41H18C17.4477 41 17 40.5523 17 40V38Z" fill="#4A6BB7"/>
<path fill-rule="evenodd" clip-rule="evenodd" d="M16.1499 38C16.1499 36.9783 16.9782 36.15 17.9999 36.15H31.9999C33.0216 36.15 33.8499 36.9783 33.8499 38V40C33.8499 41.0217 33.0216 41.85 31.9999 41.85H17.9999C16.9782 41.85 16.1499 41.0217 16.1499 40V38ZM17.9999 37.85C17.9171 37.85 17.8499 37.9172 17.8499 38V40C17.8499 40.0828 17.9171 40.15 17.9999 40.15H31.9999C32.0827 40.15 32.1499 40.0828 32.1499 40V38C32.1499 37.9172 32.0827 37.85 31.9999 37.85H17.9999Z" fill="white"/>
<path d="M26.6777 20H23.3221C23.2669 20 23.2221 20.0448 23.2221 20.1V28.6019C23.2221 28.688 23.1206 28.7339 23.056 28.6769L19.2923 25.356C19.2528 25.3212 19.1931 25.323 19.1557 25.3601L17.0735 27.427C17.0333 27.4669 17.0342 27.5322 17.0756 27.5709L24.9315 34.9359C24.97 34.9719 25.0299 34.9719 25.0683 34.9359L32.9243 27.5709C32.9656 27.5322 32.9666 27.4669 32.9264 27.427L30.8441 25.3601C30.8068 25.323 30.747 25.3212 30.7075 25.356L26.9439 28.6769C26.8793 28.7339 26.7777 28.688 26.7777 28.6019V20.1C26.7777 20.0448 26.7329 20 26.6777 20Z" fill="#4A6BB7"/>
<path fill-rule="evenodd" clip-rule="evenodd" d="M22.3725 20.1C22.3725 19.5753 22.7979 19.15 23.3225 19.15H26.6781C27.2028 19.15 27.6281 19.5753 27.6281 20.1V26.9399L30.1455 24.7187L30.7079 25.356L30.1455 24.7187C30.5207 24.3877 31.0883 24.4043 31.4433 24.7568L30.8445 25.3601L31.4433 24.7568L33.5256 26.8237C33.9074 27.2028 33.8986 27.823 33.506 28.191L25.6501 35.556L25.6501 35.556C25.2846 35.8986 24.716 35.8986 24.3506 35.556L24.9319 34.9359L24.3506 35.556L16.4946 28.191C16.1021 27.823 16.0932 27.2028 16.4751 26.8237L18.5573 24.7568L18.5573 24.7568C18.9124 24.4043 19.48 24.3877 19.8551 24.7187L19.3013 25.3463L19.8551 24.7187L22.3725 26.9399V20.1ZM24.0725 20.85V28.6019C24.0725 29.42 23.1074 29.8555 22.494 29.3143L19.2567 26.4579L18.2245 27.4825L25.0003 33.8349L31.7762 27.4825L30.7439 26.4579L27.5066 29.3143L26.9443 28.6769L27.5066 29.3143C26.8932 29.8555 25.9281 29.42 25.9281 28.6019V20.85H24.0725ZM32.3272 28.0295C32.3274 28.0297 32.3277 28.03 32.3279 28.0302L32.8563 27.4979L32.3279 28.0302L32.3272 28.0295ZM17.6733 28.0297L17.6727 28.0302L17.1443 27.4979L17.6727 28.0302C17.6729 28.03 17.6731 28.0299 17.6733 28.0297Z" fill="white"/>
</svg>

<svg width="50" height="50" fill="none" xmlns="http://www.w3.org/2000/svg"><path fill-rule="evenodd" clip-rule="evenodd" d="M9.85 2.85v44.3h30.3V15.66L27.278 2.85H9.85zm-1.7-.75a.95.95 0 01.95-.95h18.488c.251 0 .492.1.67.277L41.57 14.674c.18.178.28.42.28.673V47.9a.95.95 0 01-.95.95H9.1a.95.95 0 01-.95-.95V2.1z" fill="#fff"/><path fill-rule="evenodd" clip-rule="evenodd" d="M27.85 14.15V2h-1.7v12.9c0 .525.425.95.95.95H41v-1.7H27.85z" fill="#fff"/><path d="M17 38a1 1 0 011-1h14a1 1 0 011 1v2a1 1 0 01-1 1H18a1 1 0 01-1-1v-2z" fill="#4A6BB7"/><path fill-rule="evenodd" clip-rule="evenodd" d="M16.15 38A1.85 1.85 0 0118 36.15h14A1.85 1.85 0 0133.85 38v2A1.85 1.85 0 0132 41.85H18A1.85 1.85 0 0116.15 40v-2zm1.85-.15a.15.15 0 00-.15.15v2c0 .083.067.15.15.15h14a.15.15 0 00.15-.15v-2a.15.15 0 00-.15-.15H18z" fill="#fff"/><path d="M26.678 20h-3.356a.1.1 0 00-.1.1v8.502a.1.1 0 01-.166.075l-3.764-3.321a.1.1 0 00-.136.004l-2.082 2.067a.1.1 0 00.002.144l7.855 7.365a.1.1 0 00.137 0l7.856-7.365a.1.1 0 00.002-.144l-2.082-2.067a.1.1 0 00-.137-.004l-3.763 3.32a.1.1 0 01-.166-.074V20.1a.1.1 0 00-.1-.1z" fill="#4A6BB7"/><path fill-rule="evenodd" clip-rule="evenodd" d="M22.372 20.1a.95.95 0 01.95-.95h3.356a.95.95 0 01.95.95v6.84l2.517-2.221.563.637-.563-.637a.95.95 0 011.298.038l-.599.603.6-.603 2.082 2.067a.95.95 0 01-.02 1.367l-7.856 7.365a.95.95 0 01-1.3 0l.582-.62-.581.62-7.856-7.365a.95.95 0 01-.02-1.367l2.082-2.067a.95.95 0 011.298-.038l-.554.627.554-.627 2.517 2.22V20.1zm1.7.75v7.752a.95.95 0 01-1.578.712l-3.237-2.856-1.033 1.025L25 33.835l6.776-6.352-1.032-1.025-3.237 2.856-.563-.637.563.637a.95.95 0 01-1.579-.712V20.85h-1.855zm8.255 7.18l.53-.532-.53.532zm-14.654 0l-.529-.532.529.532z" fill="#fff"/></svg>
